X:2
T:After the Battle of Aughrim
T:Return from Fingal, The
R:march
C:Syracuse session setting
L:1/8
M:2/4
K:Edor
&quot;Em&quot;B/A/G/F/ E/F/G/A/|B/A/G/F/ E>B|&quot;D&quot;A/G/F/A/ dA|BA B/c/d|
&quot;Em&quot;B/A/G/F/ E/F/G/A/|B/A/G/F/ E>B|&quot;D&quot;A/G/F/A/ dA|&quot;Em&quot;FE E2:|
&quot;Em&quot;fe ed/c/|&quot;D&quot;BA d>A|BA dA|BA B/c/d/e/|
&quot;Em&quot;fe ed/c/|&quot;D&quot;BA d>B|A/G/F/A/ dA|&quot;Em&quot;FE E2:|
</abc>
